X:140
T:St. Patrick’s Day in the Morning. HSJJ.143
M:6/8
L:1/8
Q:3/8=120
S:HSJ Jackson,Wyresdale,Lancs.1823
R:.Jig
O:England
A:Lancashire
H:1823
Z:vmp.Chris Partington.
K:C
c>dc c2e|g>ag gec|d>ede2c|ABAA2G|!
c>dcc2e|g>ag gec|d>ede2c|A3c2:|!
gabc’2a|b2g a^fd|gabc’2a|b2ga3|!
gabc’2a|b2g ” DC”abc’|]
W:HRUMPHH?

